X:1
T:Title
%%score { ( 1 2 3 ) | ( 4 5 ) }
L:1/8
Q:1/4=92
M:4/4
K:Eb
V:1 treble nm="Grand Piano"
V:2 treble 
V:3 treble 
V:4 bass 
V:5 bass 
V:1
 z4 [Ge]4 | [Ac]>[Ac] [Bd]>[Ac] z2 E2 | [GB]2 [EGc]>[EG] z2 z A | [FA]>[FA] [DB]>[DF] z2 B,2 | %4
 z4 [Ge]4 | [Ac]>[Ac] [Bd]>[Ac] z2 E2 | E2 [FA]>[EG] [EG]3 E |[M:7/8] E/DE<[EG][DF]/ E3 | %8
[M:3/4] [Ge][Ae]- [Ae]/[Ad]/ [Ad]3 | [Ac][Ac]- [Ac]/[GB]/ [GB]3 | [GB][Gc]- [Gc]/[EG]/ [FA]3 | %11
 [FA][GB]- [GB]/[DF]/ G3 | EG- G/[GB]/ [Ge]3 | [Bd][Ac]- [Ac]/[Bd]/ [Ac]3 | %14
 [GB][GB]- [GB]/[EG]/ [DA]3 | [EG][EG]- [EG]/[DF]/ E3- | E z z2 z2 |] %17
V:2
 [GB]2 [FA]>[EG] z2 z d | z4 [GB]4 | z4 [FA]4 | z4 [EG]4 | [GB]2 [FA]>[EG] z2 z d | z4 [GB]4 | x8 | %7
[M:7/8] x7 |[M:3/4] x6 | x6 | x6 | x6 | x6 | x6 | x6 | x6 | x6 |] %17
V:3
 z4 z2 E2 | x8 | z4 z2 D2 | x8 | z4 z2 E2 | x8 | x8 |[M:7/8] x7 |[M:3/4] x6 | x6 | x6 | x6 | x6 | %13
 x6 | x6 | x6 | x6 |] %17
V:4
 z4 z2 [G,B,]2[K:treble] | [A,,,A,,]2 [A,B,F]2 [E,,E,]2 [G,B,]2 | z4 z2 [A,B,]2 | %3
 [B,,,B,,]2 [F,A,B,]2 [E,,E,]2 [E,G,]2 | z4 z2 [G,B,]2[K:treble] | %5
 [A,,,A,,]2 [F,A,B,]2 [E,,E,]2 [G,B,]2 | [B,,G,]2 [B,,B,]>[B,,B,] [B,,B,]3 [B,,G,B,] | %7
[M:7/8] [B,,G,B,]/[B,,F,B,][B,,G,B,]<[B,,B,][B,,A,]/ [E,G,]3 | %8
[M:3/4] [E,B,][F,B,]- [F,B,]/[F,B,]/ [F,B,]3 | [B,D][E,E]- [E,E]/[E,E]/ [E,E]3 | %10
 [E,B,][E,B,]- [E,B,]/[E,B,]/ [B,,B,]3 | [B,,B,][B,,B,]- [B,,B,]/[B,,B,]/ [E,B,E]3 | %12
 [E,G,][E,B,E]- [E,B,E]/[E,B,]/ [E,B,]3 | [G,E][A,E]- [A,E]/[A,E]/ [A,E]3 | %14
 [E,E][E,E]- [E,E]/[E,B,]/ [B,,B,]3 | [B,,B,][B,,B,]- [B,,B,]/[B,,A,]/ [E,G,]3- | [E,G,] z z2 z2 |] %17
V:5
 [E,,E,]2 [E,B,]2 [E,,E,]2 z[K:treble] B | x8 | [E,,E,]2 [G,B,]2 [B,,,B,,]2 z F | x8 | %4
 [E,,E,]2 [E,B,]2 [E,,E,]2 z[K:treble] B | x8 | x8 |[M:7/8] x7 |[M:3/4] x6 | x6 | x6 | x6 | x6 | %13
 x6 | x6 | x6 | x6 |] %17

